context/brand-context/default/img/icons/editors.svg

<svg id="i-editors" viewBox="0 0 18 18" xmlns="http://www.w3.org/2000/svg"><path d="m8.72592184 2.54588137c-.48811714-.34391207-1.08343326-.54588137-1.72592184-.54588137-1.65685425 0-3 1.34314575-3 3 0 1.02947485.5215457 1.96853646 1.3698342 2.51900785l.6301658.40892721v1.02400182l-.79002171.32905522c-1.93395773.8055207-3.20997829 2.7024791-3.20997829 4.8180274v.9009805h-1v-.9009805c0-2.5479714 1.54557359-4.79153984 3.82548288-5.7411543-1.09870406-.71297106-1.82548288-1.95054399-1.82548288-3.3578652 0-2.209139 1.790861-4 4-4 1.09079823 0 2.07961816.43662103 2.80122451 1.1446278-.37707584.09278571-.7373238.22835063-1.07530267.40125357zm-2.72592184 14.45411863h-1v-.9009805c0-2.5479714 1.54557359-4.7915398 3.82548288-5.7411543-1.09870406-.71297106-1.82548288-1.95054399-1.82548288-3.3578652 0-2.209139 1.790861-4 4-4s4 1.790861 4 4c0 1.40732121-.7267788 2.64489414-1.8254829 3.3578652 2.2799093.9496145 3.8254829 3.1931829 3.8254829 5.7411543v.9009805h-1v-.9009805c0-2.1155483-1.2760206-4.0125067-3.2099783-4.8180274l-.7900217-.3290552v-1.02400184l.6301658-.40892721c.8482885-.55047139 1.3698342-1.489533 1.3698342-2.51900785 0-1.65685425-1.3431458-3-3-3-1.65685425 0-3 1.34314575-3 3 0 1.02947485.5215457 1.96853646 1.3698342 2.51900785l.6301658.40892721v1.02400184l-.79002171.3290552c-1.93395773.8055207-3.20997829 2.7024791-3.20997829 4.8180274z" fill="currentColor" fill-rule="evenodd"/></svg>

<svg id="i-editors" viewBox="0 0 18 18" xmlns="http://www.w3.org/2000/svg"><path d="M8.726 2.546A3 3 0 1 0 5.37 7.519l.63.409v1.024l-.79.329A5.221 5.221 0 0 0 2 14.099V15H1v-.901a6.221 6.221 0 0 1 3.825-5.741 4 4 0 1 1 4.976-6.213 4.965 4.965 0 0 0-1.075.4zM6 17H5v-.901a6.221 6.221 0 0 1 3.825-5.741 4 4 0 1 1 4.349 0A6.221 6.221 0 0 1 17 16.099V17h-1v-.901a5.221 5.221 0 0 0-3.21-4.818l-.79-.33V9.929l.63-.409a3 3 0 1 0-3.26 0l.63.409v1.024l-.79.329A5.221 5.221 0 0 0 6 16.099z" fill="currentColor" fill-rule="evenodd"/></svg>
